!!!COM: Gomółka, Mikołaj
!!!CDT: ~1535-after 1591
!!!OTL: Serce mi każe śpiéwáć
!!!OTL@LAT: Eructavit cor meum
!!!AGn: Motet; Psalm
!!!SCn: Gom2045
!!!voices: 4
!!!CNT: Polish
!!!OCY: Poland
!!!LYR: Jan Kochanowski (1530-1584/08/22)
!!!GTL: Melodiae na Psałterz Polski
!!!EFL: 45/150
!!!PPR: Łazarz Andrysowicz
!!!PPP: Kraków
!!!PDT: 1580
!!!YEC: 2015 Marcin Konik
!!!ENC: Marcin Konik
!!!END: 2015/05/19
!!!EED: Marcin Konik
!!!EEV: 2015/05/19
!!!ONB: Translated from MusicXML and edited on 2015/03/06 by Marcin Konik
!!!CharacterEncoding: utf-8
!!muse2ps: i2I150v85,85,85,150Q16
**kern	**kern	**kern	**kern
*staff4	*staff3	*staff2	*staff1
*Ivox	*Ivox	*Ivox	*Ivox
*I"Bassus	*I"Tenor	*I"Altus	*I"Cantus
*I'B	*I'T	*I'A	*I'C
*clefF3	*clefC3	*clefC2	*clefG2
*k[b-]	*k[b-]	*k[b-]	*k[b-]
*M2/1	*M2/1	*M2/1	*M2/1
*met(C|)	*met(C|)	*met(C|)	*met(C|)
=1-	=1-	=1-	=1-
1F	1c	1.f	1cc
4BB-	1d	.	1b-
4C	.	.	.
4D	.	2d	.
4E	.	.	.
=2	=2	=2	=2
1F	1A	1c	1a
2r	2r	2r	2r
2F	2c	2a	2ff
=3	=3	=3	=3
1c	2e	1g	1ee
.	2c	.	.
1B-	2d	1g	1dd
.	2e	.	.
=4	=4	=4	=4
1A	1.f	1a	1.cc
1G	.	1c	.
.	2e	.	2g
=5	=5	=5	=5
2.F	2d	1f	4a
.	.	.	4b-
.	2c	.	1cc
4E	.	.	.
1D	1d	1f	.
.	.	.	2b
=6	=6	=6	=6
1C	2e	2g	2cc
.	2f	2a	2cc
1r	2.f	2a	2cc
.	.	2a	2cc
.	4e	.	.
=7	=7	=7	=7
2r	1d	2.b-	1dd
2G	.	.	.
.	.	4a	.
2G	2.e	2.g	1b
2G	.	.	.
.	4d	4f	.
=8	=8	=8	=8
1A	1c	1e	2.cc
.	.	.	4b-
1F	2.d	2.f	1a
.	4c	4e	.
=9	=9	=9	=9
2.G	1B-	1d	1g
4F	.	.	.
2E	1c	1g	[1cc
2C	.	.	.
=10	=10	=10	=10
0F	1c	0a	1cc]
.	1f	.	1cc
=11	=11	=11	=11
1c	2e	2g	[0cc
.	4d	4f	.
.	4e	4g	.
1C	2f	2a	.
.	2e	2g	.
=12	=12	=12	=12
1F	2f	0a	0cc]
.	2c	.	.
1F	2.f	.	.
.	4e	.	.
=13	=13	=13	=13
2.B-	2.d	2r	2r
.	.	2f	2dd
4A	4c	.	.
2G	2B-	2.b-	2.gg
2G	2B-	.	.
.	.	4a	4ff
=14	=14	=14	=14
2C	2.c	2g	2ee
2C	.	2g	2ee
.	4B-	.	.
2.F	2A	2.a	1ff
.	2A	.	.
4E	.	4g	.
=15	=15	=15	=15
2D	2.d	2f	2r
2D	.	2e	2f
.	4c	.	.
2.G	2B-	2d	2.b-
.	2B-	2d	.
4F	.	.	4a
=16	=16	=16	=16
2E	2.c	2.e	2g
2E	.	.	2g
.	4B-	4d	.
1F	1A	1c	1a
=17	=17	=17	=17
1F	1A	1c	1cc
2D	[1d	1B-	1f
2E	.	.	.
=18	=18	=18	=18
1F	2d]	1.A	1a
.	2c	.	.
[1F	2A	.	1a
.	2B	4G	.
.	.	4F	.
=19	=19	=19	=19
1F]	1.c	0G	0g
1E	.	.	.
.	2B-	.	.
=20	=20	=20	=20
1F	0A	0A	1c
2.D	.	.	2.f
4E	.	.	4g
=21	=21	=21	=21
2F	2.A	2.c	2a
2F	.	.	2a
.	4B-	4d	.
2.E	2c	2e	2.g
.	2c	2e	.
4F	.	.	4a
=22	=22	=22	=22
1G	2.B-	2.d	1b-
.	4c	4e	.
2.F	1d	1f	2.a
4G	.	.	4b-
=23	=23	=23	=23
2A	2.c	2.e	2cc
2A	.	.	2cc
.	4d	4f	.
2.G	2e	2g	2.b
.	2e	2g	.
4A	.	.	4cc
=24	=24	=24	=24
1B-	2.d	2.f	1dd
.	4e	4g	.
2.A	1f	1a	2.cc
4B-	.	.	4dd
=25	=25	=25	=25
2c	2.e	2.g	2ee
2c	.	.	2ee
.	4f	4a	.
2.B-	2g	2b-	2.dd
.	2g	2b-	.
4c	.	.	4ee
=26	=26	=26	=26
1d	2.f	2.a	1ff
.	4g	4b-	.
2.A	1a	1cc	[1ee
4B-	.	.	.
=27	=27	=27	=27
2c	4e	4g	2ee]
.	4f	4a	.
4G	4g	4b-	1dd
4A	4f	4a	.
2B-	4d	4f	.
.	4e	4g	.
4F	4f	4a	[2cc
4G	4e	4g	.
=28	=28	=28	=28
2A	4c	4e	2cc]
.	4d	4f	.
4E	4e	4g	1b-
4F	4d	4f	.
2G	4B-	4d	.
.	4c	4e	.
4D	4d	4f	[2a
4E	4c	4e	.
=29	=29	=29	=29
2F	4A	4c	2a]
.	4B-	4d	.
4C	4c	4e	1g
4D	4B-	4d	.
2E	4G	4B-	.
.	4A	4c	.
4BB-	4B-	4d	2f
4C	4A	4c	.
=30	=30	=30	=30
4D	4F	2c	1.cc
4E	4G	.	.
2F	4A	1f	.
.	4B-	.	.
1C	2c	.	.
.	2G	2e	2b-
=31	=31	=31	=31
0F	0A	0f	0a
==	==	==	==
*-	*-	*-	*-
